components/2.0/icon/icons/icon-clock-outline-22px.svg

<?xml version="1.0" encoding="UTF-8" standalone="no"?>
<svg width="22px" height="22px" viewBox="0 0 22 22" version="1.1" xmlns="http://www.w3.org/2000/svg" xmlns:xlink="http://www.w3.org/1999/xlink" xmlns:sketch="http://www.bohemiancoding.com/sketch/ns">
    <!-- Generator: Sketch 3.4.4 (17249) - http://www.bohemiancoding.com/sketch -->
    <title>icon-clock-outline-22px</title>
    <desc>Created with Sketch.</desc>
    <defs></defs>
    <g id="22px" stroke="none" stroke-width="1" fill="none" fill-rule="evenodd" sketch:type="MSPage">
        <g id="icon-clock-outline-22px" sketch:type="MSArtboardGroup" fill="#3D4752">
            <path d="M11,6 L10,6 L10,12 L15,12 L15,11 L11,11 L11,6 Z" id="Shape" sketch:type="MSShapeGroup"></path>
            <path d="M11,2 C6,2 2,6 2,11 C2,16 6,20 11,20 C16,20 20,16 20,11 C20,6 16,2 11,2 L11,2 Z M11,18 C7.1,18 4,14.9 4,11 C4,7.1 7.1,4 11,4 C14.9,4 18,7.1 18,11 C18,14.9 14.9,18 11,18 L11,18 Z" id="Shape" sketch:type="MSShapeGroup"></path>
        </g>
    </g>
</svg>

<svg width="22" height="22" xmlns="http://www.w3.org/2000/svg"><g fill="#3D4752" fill-rule="evenodd"><path d="M11 6h-1v6h5v-1h-4V6z"/><path d="M11 2c-5 0-9 4-9 9s4 9 9 9 9-4 9-9-4-9-9-9zm0 16c-4 0-7-3-7-7s3-7 7-7 7 3 7 7-3 7-7 7z"/></g></svg>
